X:1
T:Standin In The Need of Prayer
T:Save Me, Lord!
T:Copyright 1918 by Homer A. Rodeheaver
T:Rodeheaver's Plantation Melodies
Z:Rodeheaver's Plantation Melodies
%%score [ 1 2 3 4 ]
L:1/8
Q:1/4=100
M:2/4
K:G
V:1 treble nm="Soprano" snm="S."
V:2 treble nm="Alto" snm="A."
V:3 bass nm="Tenor" snm="T."
V:4 bass nm="Bass" snm="B."
V:1
 A>A | BF E/DF/ | B A3 | E E3 | BA A>A | BF E/DF/ | B A3 | AB F2 | E D2 | A | d2 dB | d A2 B | %12
w: Yes, I|want God's hea- ven to|be mine,||* * Yes, I|want God's hea- ven to|be mine;|||I|hailed to my|sis- ter, she|
 d2 dd | (B A2) B | d2 dB | AB FF | AB F2 | E D2!D.C.! |] %18
w: hailed back to|me- * The|last word I|heard her say was,|Save me Lord,|save me!|
V:2
 z2 | z4 | z4 | C C3 | DD z2 | z4 | z4 | DD D2 | C D2 | z | z4 | z4 | z4 | z4 | z4 | z4 | DD D2 | %17
w: |||be mine,|be mine;|||Save me, Lord,|save me!|||||||||
 C D2 |] %18
w: |
V:3
 z2 | z4 | z4 | A, A,3 | G,F, z2 | z4 | z4 | [A,D]D A,2 | G, F,2 | z | z4 | z4 | z4 | z4 | z4 | %15
 z4 | DD A,2 | G, F,2 |] %18
V:4
 z2 | z4 | z4 | A,, A,,3 | D,D, z2 | z4 | z4 | F,G, A,2 | A,, D,2 | z | z4 | z4 | %12
"_1. I hailed to my sister                                       4. I hailed to my mother\n2. I hailed to my brother                                    5. I hailed to the gambler\n3. I hailed to my father                                      6. I hailed to the mourner" z4 | %13
 z4 | z4 | z4 | F,G, A,2 | A,, D,2 |] %18

